static/images/mobile/copyright/wikipedia-tagline-shi.svg

<?xml version="1.0" encoding="UTF-8"?>
<svg width="80px" height="13px" viewBox="0 0 80 13" version="1.1" xmlns="http://www.w3.org/2000/svg" xmlns:xlink="http://www.w3.org/1999/xlink">
    <title>wikipedia-tagline-shi</title>
    <g id="Page-1" stroke="none" stroke-width="1" fill="none" fill-rule="evenodd">
        <path d="M55.9862532,0.223331054 C55.8361586,0.354662136 55.3202228,0.983152077 54.8418139,1.61166896 C54.3634051,2.24017237 53.9318983,2.81238526 53.8849828,2.86866231 C53.6504727,3.187615 54.1007429,2.90624321 55.3764998,1.93060817 C56.1457093,1.35838181 56.8304359,0.767405418 56.9055977,0.626699317 C57.0369288,0.401564169 57.0369288,0.364037154 56.8774592,0.185804039 C56.642949,-0.0768446537 56.3333848,-0.0580946162 55.9862936,0.223384934 L55.9862532,0.223331054 Z M49.8790211,2.63443501 L49.8790211,4.70758032 L49.4662779,5.74882701 C48.4156427,8.44104683 47.2149264,10.8987565 46.6896021,11.4522328 C46.3049973,11.8556011 46.0329601,11.9118781 45.7515344,11.6304659 C45.5733013,11.4522328 45.5639263,11.3209017 45.5639263,8.11267872 L45.5639263,4.78252659 L44.335058,4.78252659 L44.3631965,8.2721618 C44.3913351,11.6679121 44.4007236,11.7805201 44.5977067,12.1557903 C44.963548,12.8311957 45.7327575,12.9343883 46.398761,12.3996889 C47.1116934,11.8274625 48.021609,10.1670605 49.2317408,7.22160744 L49.8321056,5.76767134 L49.8790077,9.14469856 L49.9259097,12.5217258 L50.5168861,12.5498778 L51.0984875,12.5780298 L51.0984875,0.561437872 L49.8790077,0.561437872 L49.8790211,2.63443501 Z M63.9496312,2.63443501 L63.9496312,4.70758032 L63.5368879,5.74882701 C62.4862527,8.44104683 61.2855364,10.8987565 60.7602121,11.4522328 C60.3756073,11.8556011 60.1035701,11.9118781 59.8221445,11.6304659 C59.6439114,11.4522328 59.6345363,11.3209017 59.6345363,8.11267872 L59.6345363,4.78252659 L58.405668,4.78252659 L58.4338066,8.2721618 C58.4619451,11.6679121 58.4713336,11.7805201 58.6683167,12.1557903 C59.034158,12.8311957 59.8033675,12.9343883 60.469371,12.3996889 C61.1823034,11.8274625 62.0922191,10.1670605 63.3023508,7.22160744 L63.9027157,5.76767134 L63.9496177,9.14469856 L63.9965197,12.5217258 L64.5874961,12.5498778 L65.1690975,12.5780298 L65.1690975,0.561437872 L63.9496177,0.561437872 L63.9496312,2.63443501 Z M71.923785,2.63443501 L71.923785,4.70758032 L71.5110418,5.74882701 C70.4604066,8.44104683 69.2596903,10.8987565 68.7343659,11.4522328 C68.3497612,11.8556011 68.077724,11.9118781 67.7962983,11.6304659 C67.6180652,11.4522328 67.6086902,11.3209017 67.6086902,8.11267872 L67.6086902,4.78252659 L66.3798219,4.78252659 L66.4079604,8.2721618 C66.436099,11.6679121 66.4454875,11.7805201 66.6424706,12.1557903 C67.0083119,12.8311957 67.7775214,12.9343883 68.4435249,12.3996889 C69.1564573,11.8274625 70.0663729,10.1670605 71.2765047,7.22160744 L71.8768695,5.76767134 L71.9237716,9.14469856 L71.9706736,12.5217258 L72.56165,12.5498778 L73.1432514,12.5780298 L73.1432514,0.561437872 L71.9237716,0.561437872 L71.923785,2.63443501 Z M10.0204016,4.73574579 C11.1001618,4.44117799 12.2545622,4.62820123 13.1860871,5.24861531 C14.117612,5.86902939 14.7351389,6.86214489 14.8795169,7.97201303 C15.048375,9.24774295 14.5793412,10.6924253 13.7069391,11.5648273 C13.0365967,12.2088305 12.1729238,12.6142967 11.2492295,12.7186416 C8.75393894,12.9251345 6.53073945,10.589327 6.8965807,8.12218844 C7.14051976,6.49934037 8.35065149,5.18600261 10.0203747,4.73573232 Z M11.5682226,4.9514251 C9.86091852,4.1822964 8.28494554,5.88960046 8.28494554,8.52551629 C8.28494554,10.5517865 9.2887191,12.1370806 10.7708072,12.4560198 C11.6901517,12.6530165 12.3655571,12.2777867 12.9002565,11.2646786 C13.3223883,10.4766921 13.4818579,9.75431724 13.4818579,8.68493202 C13.4818579,6.77757368 12.8439705,5.53309382 11.5681956,4.95149245 Z M10.9217369,7.87927308 C11.2406761,7.87927308 11.6065174,8.27325286 11.6065174,8.62973256 C11.6065174,8.98618532 11.2406761,9.38017856 10.9217369,9.38017856 C10.51613,9.36993967 10.1941674,9.03543453 10.1994294,8.62973256 C10.1994294,8.34830689 10.25572,8.22635082 10.4433281,8.07625623 C10.5809976,7.96673728 10.7468659,7.89844158 10.9217369,7.87927308 Z M30.1416433,4.69532275 C29.4943764,4.85479236 28.865873,5.25816062 28.6219743,5.67091737 C28.115427,6.54330597 28.4437412,7.25618455 29.9165082,8.44759318 C30.3667785,8.8134479 30.7420082,9.14176214 30.7420082,9.17928915 C30.7420082,9.21687005 30.469971,9.33875876 30.1416433,9.45132633 C29.4474744,9.70460001 28.7345823,10.1830223 28.4812144,10.5676271 C28.3551784,10.7868921 28.2934116,11.0372082 28.3029812,11.2899345 C28.3029812,11.6933028 28.3405083,11.7871069 28.6594475,12.0966711 C29.1190928,12.5656914 29.6256536,12.6970225 30.8357719,12.706411 C31.9051706,12.706411 32.4867719,12.5563164 33.0684003,12.1248096 C33.7250422,11.6370123 33.8939003,11.0647994 33.5655726,10.4175055 C33.3592009,10.0235123 33.0496367,9.72333657 31.8395454,8.77593436 C31.3892751,8.41946813 31.0234339,8.10052891 31.0234339,8.06301537 C31.0234339,8.02543447 31.2204305,7.95970158 31.4737042,7.89415727 C32.1772482,7.70653567 32.8526132,7.33130593 33.2184544,6.93732616 C33.8563329,6.22440717 33.6124477,5.34263008 32.6462281,4.90176174 C32.0552517,4.62971109 30.7982987,4.52653201 30.1416433,4.69537663 L30.1416433,4.69532275 Z M31.9615554,5.1080795 C32.7495284,5.86790053 32.4587277,7.10619772 31.3518155,7.64081625 L30.8358796,7.89408992 L30.4137479,7.5563872 C29.5507343,6.85282976 29.3255991,6.17747819 29.7289539,5.49267079 C30.0385181,4.96734646 30.4700249,4.76098829 31.1454438,4.80787686 C31.5769506,4.83602885 31.7364202,4.89233284 31.9615554,5.10806603 L31.9615554,5.1080795 Z M31.5769506,9.75154245 C32.214829,10.2487013 32.5243932,10.7271236 32.5243932,11.2524883 C32.5243932,12.3875391 31.0328763,12.9316404 29.9727987,12.1811809 C29.5881939,11.9091303 29.3911973,11.2806403 29.5225284,10.792843 C29.6913865,10.1455761 30.7701602,9.15127185 31.0703494,9.36692422 C31.1266264,9.40437042 31.3517751,9.57329587 31.5769102,9.75154245 L31.5769506,9.75154245 Z M39.6069101,4.70879261 C38.4249573,5.0183568 37.9183291,5.55305615 37.927758,6.46297176 C37.9371869,7.35412386 38.3405013,7.85130966 39.4850079,8.38606289 L40.1135113,8.67686358 L39.6848197,8.80819466 C38.5403805,9.13650889 37.6116744,10.1496305 37.7337113,10.9187862 C37.986985,12.5322053 40.5009582,13.2170127 42.9868199,12.344705 C43.3995632,12.2039989 43.4558537,12.0820428 43.5496577,11.0783231 L43.6059483,10.4498197 L43.3995766,10.815661 C43.1275394,11.3128333 42.3301779,12.1008063 41.8611845,12.325901 C41.2983467,12.6073132 40.3883906,12.5791747 39.8537721,12.279026 C39.3190728,11.9788502 39.0845626,11.6505091 39.0282721,11.1439617 C38.896941,9.96199546 39.684914,9.04266442 40.9982383,8.85502934 C41.4860356,8.78000225 41.6361167,8.52671511 41.1858464,8.52671511 C40.7824782,8.52671511 39.9851301,8.11397183 39.7224814,7.76688062 C39.3847787,7.31661032 39.2628361,6.96014409 39.2534476,6.35981961 C39.2534476,5.68441417 39.5067213,5.23414387 40.0695592,4.97148171 C41.1295694,4.4555324 42.2740356,4.95262391 43.0057181,6.25661359 L43.3621843,6.88513047 L43.3903228,6.14404601 C43.4090863,5.73130273 43.3997517,5.34671145 43.3715593,5.29042092 C43.3434208,5.23411693 42.9775795,5.06528578 42.5460728,4.91519119 C41.6239535,4.60562699 40.3481966,4.52121141 39.6070852,4.70881955 L39.6069101,4.70879261 Z M53.968469,4.69532275 C53.3212021,4.85479236 52.6926986,5.25816062 52.4488,5.67091737 C51.9422526,6.54330597 52.2705669,7.25618455 53.7433338,8.44759318 C54.1936041,8.8134479 54.5688339,9.14176214 54.5688339,9.17928915 C54.5688339,9.21687005 54.3436987,9.31999525 54.0810365,9.4044243 C53.3962561,9.62017096 52.5519387,10.1642588 52.3268574,10.5394885 C52.1894201,10.7685188 52.1210165,11.0323533 52.1298608,11.2993096 C52.1298608,11.6839143 52.1767628,11.7871069 52.486327,12.0966711 C52.9459723,12.5656914 53.4525331,12.6970225 54.6626514,12.706411 C55.4037224,12.706411 55.7601886,12.6595359 56.1165875,12.5281778 C57.0921686,12.1623231 57.6081045,11.5713467 57.5425063,10.9053298 C57.4862158,10.3518669 57.1954286,10.0047892 55.9478102,9.00109645 C55.3755839,8.53206264 54.8878,8.10993087 54.8690365,8.07240386 C54.850273,8.03495766 55.0472696,7.95993057 55.2911683,7.89418421 C56.0041007,7.70656261 56.6795062,7.34072136 57.0453474,6.9373531 C57.6832259,6.22443411 57.4393407,5.34265702 56.4731211,4.90178868 C55.8821447,4.62973803 54.6251917,4.52655895 53.9685363,4.69540357 L53.968469,4.69532275 Z M55.7882463,5.1080795 C56.5762193,5.86790053 56.2854187,7.10619772 55.1785064,7.64081625 L54.6625706,7.89408992 L54.2404388,7.5563872 C53.3774252,6.85282976 53.1522901,6.17747819 53.5556583,5.49267079 C53.8652225,4.96734646 54.2967293,4.76098829 54.9721482,4.80787686 C55.403655,4.83602885 55.5631246,4.89233284 55.7882598,5.10806603 L55.7882463,5.1080795 Z M55.7694828,10.0703739 C56.1916146,10.4643672 56.3510842,10.7926949 56.3510842,11.2804922 C56.3510842,12.3873909 54.8408441,12.9220633 53.7994897,12.1810328 C53.4148849,11.9089821 53.2178883,11.2804922 53.3492194,10.7926949 C53.4711619,10.3330361 53.9870978,9.71392115 54.4655201,9.47002249 L54.8032228,9.30117786 L55.131537,9.53567456 C55.3097701,9.67639413 55.6005708,9.9109043 55.7694155,10.0703739 L55.7694828,10.0703739 Z M76.003804,4.70879261 C74.8218377,5.0183568 74.315223,5.55305615 74.3246519,6.46297176 C74.3340808,7.35412386 74.7373952,7.85130966 75.8819018,8.38606289 L76.5104052,8.67686358 L76.0788984,8.80819466 C74.9344592,9.13650889 74.0057531,10.1496305 74.12779,10.9187862 C74.3810637,12.5322053 76.8950369,13.2170127 79.3808985,12.344705 C79.7936418,12.2039989 79.8499324,12.0820428 79.9437364,11.0783231 L80,10.4498197 L79.7936149,10.815661 C79.5215777,11.3128333 78.7242297,12.1008063 78.2552228,12.325901 C77.6923849,12.6073132 76.7824289,12.5791747 76.2478104,12.279026 C75.713111,11.9788502 75.4786009,11.6505091 75.4223104,11.1439617 C75.2909793,9.96199546 76.0789523,9.04266442 77.3922766,8.85502934 C77.8800739,8.78000225 78.030155,8.52671511 77.5798847,8.52671511 C77.1765164,8.52671511 76.3791684,8.11397183 76.1165197,7.76688062 C75.778817,7.31661032 75.6568744,6.96014409 75.6474859,6.35981961 C75.6474859,5.68441417 75.9007596,5.23414387 76.4635975,4.97148171 C77.5236077,4.4555324 78.6680738,4.95262391 79.3997563,6.25661359 L79.7562226,6.88513047 L79.784415,6.14404601 C79.8032054,5.73130273 79.7939786,5.34671145 79.7656245,5.29042092 C79.7374321,5.23411693 79.3716313,5.06528578 78.940138,4.91519119 C78.0208339,4.60562699 76.7450905,4.52121141 76.0039791,4.70881955 L76.003804,4.70879261 Z M22.393783,7.94155769 C22.393783,9.9678279 22.43131,11.2435578 22.4969621,11.4873622 C22.6564317,12.040825 23.1817426,12.5192473 23.7821074,12.6505649 C24.7483136,12.8569501 26.3429962,12.6881458 27.1685636,12.3034872 C27.4968913,12.1440176 27.5062663,12.1252541 27.6188339,11.3466561 C27.6685675,11.0549887 27.6999019,10.7604813 27.7126514,10.464879 C27.6938879,10.4180039 27.5531818,10.6055986 27.3937122,10.8963858 C26.8214858,11.9001189 25.6864081,12.622413 24.8141004,12.5473859 C24.2512625,12.4910819 23.8854212,12.2378217 23.7353266,11.8063149 C23.6602861,11.5811797 23.6227591,10.5211695 23.6227591,8.31667967 L23.6133302,5.15543951 L25.5832964,5.15543951 C27.4875297,5.15543951 27.5532626,5.14601061 27.5532626,4.96781791 C27.5532626,4.78959826 27.4875971,4.78020978 24.9736508,4.78020978 L22.3940389,4.78020978 L22.393783,7.94155769 Z M2.02870998,7.73950987 C0.630943173,8.16164164 -0.260222402,9.54999302 0.068172651,10.7788478 C0.283932781,11.5949594 0.85614567,12.1859088 1.75675361,12.5235981 C2.36649352,12.7581083 3.89549711,12.7581083 4.56158142,12.5235981 C6.0812504,11.9982872 6.69103072,10.2440946 5.8936288,8.69627364 C5.74353421,8.39609793 5.64973014,8.14281079 5.67786867,8.11467226 C5.81593945,8.0601936 5.95685587,8.01322296 6.10000044,7.97396616 C6.28760858,7.90836797 6.44709165,7.79573304 6.44709165,7.72069249 C6.44709165,7.53307088 2.65734809,7.5424459 2.02884467,7.73941558 L2.02870998,7.73950987 Z M3.9705242,8.05846256 C4.31761541,8.20854368 4.39265597,8.29295925 4.57088909,8.77138155 C5.30258505,10.7131958 4.48646004,12.7300371 3.060649,12.5048211 C1.94434828,12.326588 1.10954057,10.966429 1.37206804,9.73757421 C1.47873309,9.18191643 1.74619806,8.66980526 2.14127755,8.26478032 C2.65721339,7.76760799 3.15438572,7.71133094 3.97048379,8.05842215 L3.9705242,8.05846256 Z M17.2253998,7.73950987 C15.827633,8.16164164 14.9364675,9.54999302 15.2648625,10.7788478 C15.4806226,11.5949594 16.0528355,12.1859088 16.9534435,12.5235981 C17.5631834,12.7581083 19.092187,12.7581083 19.7582713,12.5235981 C21.2779403,11.9982872 21.8877206,10.2440946 21.0903187,8.69627364 C20.9402241,8.39609793 20.84642,8.14281079 20.8745585,8.11467226 C21.0126293,8.0601936 21.1535457,8.01322296 21.2966903,7.97396616 C21.4842984,7.90836797 21.643768,7.79573304 21.643768,7.72069249 C21.643768,7.53307088 17.8540245,7.5424459 17.2255211,7.73941558 L17.2253998,7.73950987 Z M19.1672141,8.05846256 C19.5143053,8.20854368 19.5893458,8.29295925 19.7675789,8.77138155 C20.4992749,10.7131958 19.6831499,12.7300371 18.2573389,12.5048211 C17.1410381,12.326588 16.3062304,10.966429 16.5687579,9.73757421 C16.6754229,9.18191643 16.9428879,8.66980526 17.3379674,8.26478032 C17.8539032,7.76760799 18.3510756,7.71133094 19.1671737,8.05842215 L19.1672141,8.05846256 Z" id="wikipedia-tagline-shi" fill="#000000" fill-rule="nonzero"></path>
    </g>
</svg>

<svg xmlns="http://www.w3.org/2000/svg" width="80" height="13"><path fill="#000" fill-rule="nonzero" d="M55.986.223c-.15.132-.666.76-1.144 1.389-.479.628-.91 1.2-.957 1.257-.235.319.216.037 1.491-.938.77-.573 1.454-1.164 1.53-1.304.13-.225.13-.263-.029-.441-.234-.263-.544-.244-.89.037ZM49.88 2.634v2.074l-.413 1.04c-1.05 2.693-2.251 5.15-2.776 5.704-.385.404-.657.46-.938.178-.179-.178-.188-.31-.188-3.517v-3.33h-1.229l.028 3.49c.028 3.395.038 3.508.235 3.883.366.675 1.135.778 1.8.244.714-.573 1.624-2.233 2.834-5.178l.6-1.454.047 3.377.047 3.377.59.028.582.028V.561H49.88v2.073Zm14.07 0v2.074l-.412 1.04c-1.05 2.693-2.251 5.15-2.777 5.704-.384.404-.656.46-.938.178-.178-.178-.187-.31-.187-3.517v-3.33h-1.23l.029 3.49c.028 3.395.037 3.508.234 3.883.366.675 1.135.778 1.801.244.713-.573 1.623-2.233 2.833-5.178l.6-1.454.048 3.377.047 3.377.59.028.582.028V.561h-1.22v2.073Zm7.975 0v2.074l-.413 1.04c-1.05 2.693-2.251 5.15-2.777 5.704-.384.404-.656.46-.938.178-.178-.178-.187-.31-.187-3.517v-3.33h-1.23l.029 3.49c.028 3.395.037 3.508.234 3.883.366.675 1.136.778 1.802.244.712-.573 1.622-2.233 2.833-5.178l.6-1.454.047 3.377.047 3.377.59.028.582.028V.561h-1.22v2.073ZM10.02 4.736a3.872 3.872 0 0 1 4.86 3.236c.168 1.276-.3 2.72-1.173 3.593a4.233 4.233 0 0 1-2.458 1.154c-2.495.206-4.718-2.13-4.352-4.597C7.14 6.5 8.35 5.186 10.02 4.736Zm1.548.215c-1.707-.769-3.283.939-3.283 3.575 0 2.026 1.004 3.611 2.486 3.93.92.197 1.595-.178 2.13-1.191.421-.788.58-1.51.58-2.58 0-1.907-.637-3.152-1.913-3.734Zm-.646 2.928c.319 0 .685.394.685.75 0 .357-.366.751-.685.751a.741.741 0 0 1-.723-.75c0-.282.057-.404.244-.554a.931.931 0 0 1 .479-.197Zm19.22-3.184c-.648.16-1.276.563-1.52.976-.507.872-.178 1.585 1.295 2.777.45.365.825.694.825.731 0 .038-.272.16-.6.272-.695.254-1.407.732-1.66 1.117-.127.219-.189.47-.179.722 0 .403.038.497.356.807.46.469.967.6 2.177.61 1.07 0 1.65-.15 2.232-.582.657-.488.826-1.06.498-1.707-.207-.394-.516-.695-1.726-1.642-.45-.357-.817-.675-.817-.713 0-.038.197-.103.45-.169.704-.187 1.38-.563 1.745-.957.638-.713.394-1.594-.572-2.035-.59-.272-1.848-.375-2.504-.207Zm1.82.413c.788.76.497 1.998-.61 2.533l-.516.253-.422-.338c-.863-.703-1.088-1.379-.685-2.063.31-.526.741-.732 1.416-.685.432.028.591.084.817.3Zm-.385 4.644c.638.497.947.975.947 1.5 0 1.136-1.491 1.68-2.551.93-.385-.273-.582-.901-.45-1.39.168-.646 1.247-1.64 1.547-1.425.057.037.282.206.507.385Zm8.03-5.043c-1.182.31-1.689.844-1.68 1.754.01.891.414 1.388 1.558 1.923l.629.29-.43.132c-1.144.329-2.072 1.342-1.95 2.11.253 1.614 2.767 2.299 5.253 1.427.413-.141.469-.263.563-1.267l.056-.628-.206.366c-.272.497-1.07 1.285-1.539 1.51-.563.281-1.473.253-2.007-.047-.535-.3-.77-.628-.826-1.135-.131-1.182.657-2.101 1.97-2.289.488-.075.638-.328.188-.328-.404 0-1.2-.413-1.464-.76-.337-.45-.46-.807-.469-1.407 0-.676.254-1.126.817-1.389 1.06-.515 2.204-.018 2.936 1.286l.356.628.028-.741c.02-.413.01-.797-.018-.854-.029-.056-.394-.225-.826-.375-.922-.31-2.198-.394-2.939-.206Zm14.361-.014c-.647.16-1.275.563-1.52.976-.506.872-.177 1.585 1.295 2.777.45.365.826.694.826.731 0 .038-.225.141-.488.225-.685.216-1.53.76-1.754 1.135a1.387 1.387 0 0 0-.197.76c0 .385.047.488.356.798.46.469.967.6 2.177.61.74 0 1.097-.047 1.454-.179.975-.366 1.491-.957 1.426-1.623-.057-.553-.348-.9-1.595-1.904-.572-.469-1.06-.891-1.079-.929-.019-.037.178-.112.422-.178.713-.187 1.389-.553 1.754-.957.638-.713.394-1.594-.572-2.035-.59-.272-1.848-.375-2.504-.207Zm1.82.413c.788.76.497 1.998-.61 2.533l-.515.253-.423-.338c-.863-.703-1.088-1.379-.684-2.063.31-.526.74-.732 1.416-.685.432.028.591.084.816.3Zm-.019 4.962c.423.394.582.723.582 1.21 0 1.107-1.51 1.642-2.552.901-.384-.272-.581-.9-.45-1.388.122-.46.638-1.08 1.117-1.323l.337-.169.329.235c.178.14.469.375.637.534ZM76.004 4.71c-1.182.31-1.689.844-1.68 1.754.01.891.413 1.388 1.558 1.923l.628.29-.431.132c-1.145.329-2.073 1.342-1.951 2.11.253 1.614 2.767 2.299 5.253 1.427.413-.141.469-.263.563-1.267L80 10.45l-.206.366c-.272.497-1.07 1.285-1.539 1.51-.563.281-1.473.253-2.007-.047-.535-.3-.77-.628-.826-1.135-.131-1.182.657-2.101 1.97-2.289.488-.075.638-.328.188-.328-.403 0-1.2-.413-1.463-.76-.338-.45-.46-.807-.47-1.407 0-.676.254-1.126.817-1.389 1.06-.515 2.204-.018 2.936 1.286l.356.628.028-.741c.02-.413.01-.797-.018-.854-.029-.056-.394-.225-.826-.375-.92-.31-2.195-.394-2.936-.206Zm-53.61 3.233c0 2.026.037 3.302.103 3.545.16.554.685 1.032 1.285 1.164.966.206 2.561.037 3.387-.348.328-.159.337-.178.45-.956.05-.292.08-.587.094-.882-.02-.047-.16.14-.32.431-.572 1.004-1.707 1.726-2.579 1.651-.563-.056-.929-.31-1.079-.74-.075-.226-.112-1.286-.112-3.49l-.01-3.162h1.97c1.905 0 1.97-.009 1.97-.187s-.065-.188-2.58-.188h-2.579v3.162ZM2.029 7.74C.63 8.162-.261 9.55.069 10.779c.215.816.787 1.407 1.688 1.745.61.234 2.138.234 2.805 0 1.52-.526 2.129-2.28 1.332-3.828-.15-.3-.244-.553-.216-.581.138-.055.279-.102.422-.141.188-.066.347-.178.347-.253 0-.188-3.79-.179-4.418.018Zm1.942.318c.347.15.422.235.6.713.732 1.942-.085 3.959-1.51 3.734-1.117-.178-1.951-1.539-1.689-2.767a2.89 2.89 0 0 1 .77-1.473c.515-.497 1.012-.554 1.828-.207Zm13.254-.318c-1.397.422-2.289 1.81-1.96 3.039.216.816.788 1.407 1.688 1.745.61.234 2.14.234 2.805 0 1.52-.526 2.13-2.28 1.332-3.828-.15-.3-.244-.553-.215-.581.138-.055.279-.102.422-.141.187-.066.347-.178.347-.253 0-.188-3.79-.179-4.418.018Zm1.942.318c.347.15.422.235.6.713.732 1.942-.084 3.959-1.51 3.734-1.116-.178-1.95-1.539-1.688-2.767a2.89 2.89 0 0 1 .769-1.473c.516-.497 1.013-.554 1.83-.207Z"/></svg>
